assets/img/partners/slider-2/brussels.svg

<?xml version="1.0" encoding="UTF-8"?>
<svg width="300px" height="100px" viewBox="0 0 300 100" version="1.1" xmlns="http://www.w3.org/2000/svg" xmlns:xlink="http://www.w3.org/1999/xlink">
    <!-- Generator: Sketch 46.2 (44496) - http://www.bohemiancoding.com/sketch -->
    <title>brussels</title>
    <desc>Created with Sketch.</desc>
    <defs></defs>
    <g id="Page-1" stroke="none" stroke-width="1" fill="none" fill-rule="evenodd">
        <g id="brussels" fill-rule="nonzero">
            <g id="Brussels_Airlines_logo" transform="translate(8.000000, 27.000000)">
                <path d="M10.6134,38.556 C10.6134,40.3984 8.5614,41.8824 6.0135,41.8824 C3.47415,41.8824 1.425,40.3984 1.425,38.556 C1.425,36.722 3.477,35.2212 6.0192,35.2212 C8.5614,35.2156 10.6134,36.7164 10.6134,38.556" id="Shape" fill="#EE452A"></path>
                <path d="M13.8225,30.6096 C13.8225,32.1524 12.027,33.3956 9.7983,33.4096 C7.5639,33.3956 5.7627,32.1524 5.7627,30.6096 C5.7627,29.0668 7.5639,27.8432 9.7983,27.8432 C12.027,27.8348 13.8225,29.0668 13.8225,30.6096" id="Shape" fill="#EE452A"></path>
                <path d="M16.45875,23.9792 C16.45875,25.214 14.92545,26.2192 13.0302,26.2248 C11.12925,26.2248 9.5874,25.2196 9.5874,23.9792 C9.5874,22.7472 11.1321,21.7392 13.0302,21.7392 C14.92545,21.7392 16.45875,22.7528 16.45875,23.9792" id="Shape" fill="#EE452A"></path>
                <path d="M23.4726,5.88 C23.4669,6.3672 22.67175,6.7648 21.6828,6.7648 C20.69385,6.7648 19.8873,6.3672 19.8873,5.88 C19.8873,5.3844 20.69385,4.9952 21.6828,4.9952 C22.67175,4.9952 23.4669,5.3816 23.4726,5.88" id="Shape" fill="#EE452A"></path>
                <path d="M25.54455,0.7588 C25.54455,1.1116 24.9432,1.3916 24.19935,1.3916 C23.4498,1.3916 22.85415,1.1116 22.84845,0.7588 C22.84845,0.4116 23.4498,0.1176 24.19935,0.1176 C24.9432,0.1176 25.54455,0.4116 25.54455,0.7588" id="Shape" fill="#EE452A"></path>
                <path d="M24.567,3.1864 C24.567,3.598 23.8773,3.92 23.00805,3.9256 C22.1559,3.9256 21.4605,3.598 21.4605,3.1864 C21.4605,2.7832 22.1559,2.4556 23.00805,2.4556 C23.87445,2.4556 24.567,2.7832 24.567,3.1864" id="Shape" fill="#EE452A"></path>
                <path d="M18.6846,18.1552 C18.6846,19.1548 17.37645,19.9612 15.7605,19.9612 C14.15595,19.9612 12.84495,19.1548 12.84495,18.1552 C12.84495,17.1612 14.1531,16.3464 15.7605,16.3464 C17.37645,16.3492 18.6846,17.1612 18.6846,18.1552" id="Shape" fill="#EE452A"></path>
                <path d="M20.61405,13.3028 C20.61405,14.0924 19.4997,14.7448 18.11175,14.7448 C16.7352,14.7448 15.62085,14.0924 15.62085,13.3028 C15.62085,12.4964 16.7352,11.8468 18.11175,11.8468 C19.4997,11.8468 20.61405,12.4964 20.61405,13.3028" id="Shape" fill="#EE452A"></path>
                <path d="M21.33225,38.0016 C21.33225,39.662 19.4655,40.992 17.1627,40.992 C14.8599,40.992 12.98745,39.6564 12.98745,38.0016 C12.98745,36.3468 14.8599,35 17.157,35 C19.4655,35 21.33225,36.344 21.33225,38.0016" id="Shape" fill="#EE452A"></path>
                <path d="M30.5064,35.5152 C30.5064,36.974 28.82205,38.15 26.7444,38.15 C24.67245,38.15 22.9881,36.974 22.9881,35.5152 C22.9881,34.0564 24.67245,32.8636 26.7444,32.8636 C28.8192,32.8608 30.5064,34.0536 30.5064,35.5152" id="Shape" fill="#EE452A"></path>
                <path d="M35.18895,30.4332 C35.18895,31.5756 33.8124,32.5108 32.1024,32.5108 C30.41235,32.5108 29.0358,31.5756 29.0358,30.4332 C29.0358,29.2712 30.41235,28.336 32.1024,28.336 C33.8067,28.336 35.18895,29.2712 35.18895,30.4332" id="Shape" fill="#EE452A"></path>
                <path d="M30.70875,21.3724 C30.70875,22.1396 29.7027,22.7528 28.47435,22.7528 C27.2289,22.7528 26.22285,22.1396 26.22285,21.3724 C26.22285,20.6108 27.2289,19.9808 28.47435,19.9808 C29.70555,19.9808 30.70875,20.608 30.70875,21.3724" id="Shape" fill="#EE452A"></path>
                <path d="M22.2642,9.2456 C22.2642,9.884 21.318,10.4048 20.1438,10.4048 C18.97815,10.4048 18.0291,9.8812 18.0291,9.2456 C18.0291,8.61 18.97815,8.0948 20.1438,8.0948 C21.31515,8.0948 22.2642,8.6128 22.2642,9.2456" id="Shape" fill="#EE452A"></path>
                <path d="M34.36815,25.1608 C34.36815,26.096 33.2025,26.8492 31.75185,26.8492 C30.3126,26.8492 29.1441,26.0904 29.1441,25.1608 C29.1441,24.2424 30.3126,23.478 31.7604,23.478 C33.19965,23.4836 34.36815,24.2424 34.36815,25.1608" id="Shape" fill="#EE452A"></path>
                <path d="M48.9858,37.8588 L48.9858,13.2132 L52.9872,13.2132 L52.9872,22.316 C54.2697,21.8736 55.4895,21.6524 56.6352,21.6524 C59.1375,21.6524 61.0698,22.4672 62.44635,24.1024 C63.63765,25.522 64.239,27.384 64.239,29.6632 C64.239,32.6536 63.2244,34.9076 61.1895,36.3916 C59.42535,37.7104 56.9715,38.36 53.8365,38.36 C52.49985,38.36 50.8782,38.2004 48.9858,37.8588 M52.9872,25.3316 L52.9872,35.0756 C53.5572,35.1624 54.0759,35.2156 54.53475,35.2156 C58.2711,35.2156 60.1407,33.446 60.1407,29.918 C60.1407,28.2016 59.6733,26.9052 58.75845,26.0372 C57.9462,25.27 56.8689,24.878 55.4895,24.878 C54.7029,24.8836 53.8707,25.0292 52.9872,25.3316" id="Shape" fill="#011F65"></path>
                <path d="M68.35155,38.15 L68.35155,23.0804 C70.68,22.148 73.03125,21.6804 75.4167,21.6804 C76.5567,21.6804 77.634,21.8316 78.63435,22.1424 L78.63435,25.4604 C77.78505,25.1524 76.84455,25.0096 75.82995,25.0096 C74.6529,25.0096 73.5015,25.214 72.3615,25.634 L72.3615,38.1584" id="Shape" fill="#011F65"></path>
                <path d="M81.2877,21.9436 L85.29765,21.9436 L85.29765,31.6176 C85.29765,32.97 85.5912,33.8912 86.1612,34.3644 C86.65995,34.7928 87.5178,35.0056 88.7148,35.0056 C89.52135,35.0056 90.41055,34.8964 91.3938,34.706 L91.3938,21.9436 L95.4123,21.9436 L95.4123,37.5872 C92.7276,38.1024 90.38775,38.3572 88.3728,38.3572 C85.83345,38.3572 83.98665,37.8532 82.83525,36.8564 C82.2339,36.2824 81.82635,35.5936 81.58695,34.7592 C81.38745,34.0144 81.2877,33.0316 81.2877,31.78" id="Shape" fill="#011F65"></path>
                <path d="M99.80985,37.59 L99.80985,34.0004 C101.3859,34.972 102.87645,35.4592 104.27865,35.4592 C106.06275,35.4592 106.95765,34.9104 106.95765,33.81 C106.95765,33.0596 106.42755,32.4632 105.3816,31.9844 L103.75995,31.2284 C102.2637,30.548 101.2263,29.7948 100.6107,28.9856 C100.07775,28.28 99.80985,27.4288 99.80985,26.4628 C99.80985,24.8892 100.44825,23.674 101.73645,22.7948 C102.8622,22.036 104.3043,21.6496 106.08555,21.6496 C107.55045,21.6496 108.9783,21.9464 110.3349,22.54 L110.3349,25.9308 C108.984,25.1132 107.6616,24.6988 106.3677,24.6988 C104.5836,24.6988 103.69725,25.2224 103.69725,26.2668 C103.69725,26.684 103.8768,27.0452 104.2416,27.3224 C104.5779,27.5772 105.34455,27.9608 106.5273,28.5236 C108.17175,29.344 109.2804,30.0776 109.83615,30.6936 C110.54865,31.5056 110.91345,32.4828 110.91345,33.6476 C110.91345,35.2828 110.2494,36.5456 108.94695,37.4332 C107.80695,38.2144 106.30785,38.6064 104.4354,38.6064 C102.8337,38.598 101.289,38.2592 99.80985,37.59" id="Shape" fill="#011F65"></path>
                <path d="M114.1197,37.59 L114.1197,34.0004 C115.71,34.972 117.2034,35.4592 118.5999,35.4592 C120.384,35.4592 121.2789,34.9104 121.2789,33.81 C121.2789,33.0596 120.74595,32.4632 119.6886,31.9844 L118.0812,31.2284 C116.57925,30.548 115.539,29.7948 114.93195,28.9856 C114.3933,28.28 114.1197,27.4288 114.1197,26.4628 C114.1197,24.8892 114.7695,23.674 116.05485,22.7948 C117.1692,22.036 118.60845,21.6496 120.40395,21.6496 C121.87455,21.6496 123.28245,21.9464 124.659,22.54 L124.659,25.9308 C123.29955,25.1132 121.9857,24.6988 120.6804,24.6988 C118.902,24.6988 118.01565,25.2224 118.01565,26.2668 C118.01565,26.684 118.1952,27.0452 118.56,27.3224 C118.902,27.5772 119.6544,27.9608 120.84855,28.5236 C122.493,29.344 123.59595,30.0776 124.1517,30.6936 C124.87275,31.5056 125.2233,32.4828 125.2233,33.6476 C125.2233,35.2828 124.56495,36.5456 123.25965,37.4332 C122.12535,38.2144 120.6177,38.6064 118.7538,38.6064 C117.15495,38.598 115.6074,38.2592 114.1197,37.59" id="Shape" fill="#011F65"></path>
                <path d="M143.469,30.7944 L132.1545,30.7944 C132.32265,33.7904 134.0298,35.3052 137.2617,35.3052 C139.2396,35.3052 141.0351,34.7424 142.6311,33.586 L142.6311,36.8928 C140.7786,37.9932 138.7836,38.5392 136.64895,38.5392 C133.83885,38.5392 131.6871,37.7244 130.20225,36.0584 C128.91405,34.6332 128.26995,32.69 128.26995,30.2708 C128.26995,27.4988 129.0936,25.3064 130.76085,23.6852 C132.2172,22.2852 134.0697,21.5796 136.30695,21.5796 C137.883,21.5796 139.25385,21.9688 140.4138,22.7108 C141.4341,23.366 142.18935,24.2452 142.68525,25.34 C143.21535,26.5048 143.46615,28.2996 143.46615,30.7272 M132.41385,27.9748 L139.59585,27.9748 C139.4163,25.7124 138.30195,24.5812 136.2471,24.5812 C135.1584,24.5812 134.2806,24.9256 133.59375,25.5976 C132.981,26.1912 132.5934,26.9752 132.41385,27.9748" id="Shape" fill="#011F65"></path>
                <rect id="Rectangle-path" fill="#011F65" x="147.5958" y="13.2132" width="4.01565" height="24.9424"></rect>
                <path d="M156.0489,37.59 L156.0489,34.0004 C157.62495,34.972 159.1212,35.4592 160.52625,35.4592 C162.3018,35.4592 163.1967,34.9104 163.1967,33.81 C163.1967,33.0596 162.66945,32.4632 161.6121,31.9844 L160.00185,31.2284 C158.50845,30.548 157.4625,29.7948 156.85545,28.9856 C156.3111,28.28 156.0489,27.4288 156.0489,26.4628 C156.0489,24.8892 156.69015,23.674 157.9869,22.7948 C159.1041,22.036 160.54335,21.6496 162.32745,21.6496 C163.79805,21.6496 165.21165,21.9464 166.56825,22.54 L166.56825,25.9308 C165.2259,25.1132 163.8978,24.6988 162.6153,24.6988 C160.81695,24.6988 159.942,25.2224 159.942,26.2668 C159.942,26.684 160.1187,27.0452 160.4835,27.3224 C160.80555,27.5772 161.58075,27.9608 162.76635,28.5236 C164.41365,29.344 165.51945,30.0776 166.07805,30.6936 C166.79055,31.5056 167.1582,32.4828 167.1582,33.6476 C167.1582,35.2828 166.49985,36.5456 165.186,37.4332 C164.04315,38.2144 162.5412,38.6064 160.68015,38.6064 C159.0699,38.598 157.53945,38.2592 156.0489,37.59" id="Shape" fill="#011F65"></path>
                <path d="M178.0737,26.7008 L178.0737,23.31 C180.16845,22.2012 182.3145,21.6524 184.4805,21.6524 C186.8517,21.6524 188.39355,22.3356 189.10605,23.7048 C189.4623,24.3964 189.6504,25.6732 189.6504,27.5548 L189.6504,37.828 C186.81465,38.234 184.50615,38.4244 182.7249,38.4244 C180.6444,38.4244 179.1681,38.0156 178.27035,37.1728 C177.48945,36.428 177.1104,35.322 177.1104,33.8492 C177.1104,31.6372 178.0509,30.0832 179.9433,29.1844 C181.1916,28.5824 183.0897,28.154 185.62335,27.874 L185.9568,27.846 L185.9568,27.2664 C185.9568,26.3032 185.77155,25.662 185.36685,25.3316 C185.0106,25.032 184.42635,24.8836 183.58845,24.8836 C181.85565,24.8836 180.006,25.4912 178.0737,26.7008 M186.03375,35.1288 L186.03375,30.814 C183.9732,30.982 182.5653,31.2816 181.7901,31.7464 C181.12035,32.1524 180.79545,32.746 180.79545,33.5552 C180.79545,34.7816 181.51365,35.3864 182.98425,35.3864 C183.79935,35.3948 184.8111,35.3052 186.03375,35.1288" id="Shape" fill="#011F65"></path>
                <path d="M194.5524,14.6692 L198.6792,14.6692 L198.6792,18.886 L194.5524,18.886 L194.5524,14.6692 Z M194.6208,21.98 L198.63075,21.98 L198.63075,38.1556 L194.6208,38.1556 L194.6208,21.98 Z" id="Shape" fill="#011F65"></path>
                <path d="M203.80065,38.15 L203.80065,23.0804 C206.1291,22.148 208.48035,21.6804 210.88005,21.6804 C212.00865,21.6804 213.08025,21.8316 214.08915,22.1424 L214.08915,25.4604 C213.2313,25.1524 212.29365,25.0096 211.28475,25.0096 C210.0963,25.0096 208.94775,25.214 207.8163,25.634 L207.8163,38.1584" id="Shape" fill="#011F65"></path>
                <rect id="Rectangle-path" fill="#011F65" x="217.3125" y="13.2132" width="4.0185" height="24.9424"></rect>
                <path d="M226.4724,14.6692 L230.6049,14.6692 L230.6049,18.886 L226.4724,18.886 L226.4724,14.6692 Z M226.5351,21.98 L230.5479,21.98 L230.5479,38.1556 L226.5351,38.1556 L226.5351,21.98 Z" id="Shape" fill="#011F65"></path>
                <path d="M235.7292,38.15 L235.7292,22.7668 C238.31985,22.0332 240.80505,21.6776 243.2019,21.6776 C245.79255,21.6776 247.6194,22.2208 248.6796,23.3296 C249.56025,24.262 250.00485,25.7348 250.00485,27.7592 L250.00485,38.15 L245.98635,38.15 L245.98635,28.028 C245.98635,26.8016 245.70705,25.9728 245.1399,25.508 C244.62975,25.0992 243.81465,24.8836 242.70315,24.8836 C241.75695,24.8836 240.76515,25.0376 239.7477,25.3316 L239.7477,38.15" id="Shape" fill="#011F65"></path>
                <path d="M269.15685,30.7944 L257.8395,30.7944 C258.00765,33.7904 259.70625,35.3052 262.9296,35.3052 C264.9246,35.3052 266.7144,34.7424 268.3104,33.586 L268.3104,36.8928 C266.4636,37.9932 264.4572,38.5392 262.33395,38.5392 C259.5267,38.5392 257.3721,37.7244 255.88155,36.0584 C254.60475,34.6332 253.9464,32.69 253.9464,30.2708 C253.9464,27.4988 254.78145,25.3064 256.43445,23.6852 C257.8908,22.2852 259.74615,21.5796 261.9777,21.5796 C263.55945,21.5796 264.92745,21.9688 266.09025,22.7108 C267.1134,23.366 267.86295,24.2452 268.3731,25.34 C268.8861,26.5048 269.14545,28.2996 269.14545,30.7272 M258.10455,27.9748 L265.28655,27.9748 C265.107,25.7124 263.99265,24.5812 261.92925,24.5812 C260.8491,24.5812 259.96275,24.9256 259.27875,25.5976 C258.666,26.1912 258.2841,26.9752 258.10455,27.9748" id="Shape" fill="#011F65"></path>
                <path d="M272.47995,37.59 L272.47995,34.0004 C274.0617,34.972 275.55225,35.4592 276.95445,35.4592 C278.7357,35.4592 279.62775,34.9104 279.62775,33.81 C279.62775,33.0596 279.09195,32.4632 278.03745,31.9844 L276.42435,31.2284 C274.9395,30.548 273.885,29.7948 273.2751,28.9856 C272.745,28.28 272.47995,27.4288 272.47995,26.46 C272.47995,24.8864 273.11265,23.6712 274.40655,22.792 C275.5266,22.0332 276.96585,21.6468 278.7528,21.6468 C280.22055,21.6468 281.6427,21.9436 282.9936,22.5372 L282.9936,25.928 C281.6541,25.1104 280.3203,24.696 279.01785,24.696 C277.2537,24.696 276.36165,25.2196 276.36165,26.264 C276.36165,26.6812 276.5412,27.0424 276.89745,27.3196 C277.23375,27.5744 278.0061,27.958 279.18885,28.5208 C280.83615,29.3412 281.9448,30.0748 282.50055,30.6908 C283.21305,31.5028 283.5636,32.48 283.5636,33.6448 C283.5636,35.28 282.91095,36.5428 281.6085,37.4304 C280.45995,38.2116 278.9637,38.6036 277.0998,38.6036 C275.50665,38.598 273.95625,38.2592 272.47995,37.59" id="Shape" fill="#011F65"></path>
            </g>
        </g>
    </g>
</svg>

<svg width="300" height="100" xmlns="http://www.w3.org/2000/svg"><g id="Page-1" fill="none" fill-rule="evenodd"><g id="brussels" fill-rule="nonzero"><g id="Brussels_Airlines_logo" transform="translate(8 27)"><path d="M10.613 38.556c0 1.842-2.052 3.326-4.6 3.326-2.539 0-4.588-1.484-4.588-3.326 0-1.834 2.052-3.335 4.594-3.335 2.542-.005 4.594 1.495 4.594 3.335m3.209-7.946c0 1.542-1.795 2.786-4.024 2.8-2.234-.014-4.035-1.258-4.035-2.8 0-1.543 1.8-2.767 4.035-2.767 2.229-.008 4.024 1.224 4.024 2.767m2.637-6.63c0 1.234-1.534 2.24-3.429 2.245-1.9 0-3.443-1.005-3.443-2.246 0-1.232 1.545-2.24 3.443-2.24 1.895 0 3.429 1.014 3.429 2.24M23.473 5.88c-.006.487-.801.885-1.79.885-.99 0-1.796-.398-1.796-.885 0-.496.807-.885 1.796-.885s1.784.387 1.79.885M25.545.759c0 .353-.602.633-1.346.633-.75 0-1.345-.28-1.35-.633 0-.347.6-.641 1.35-.641.744 0 1.346.294 1.346.64m-.978 2.428c0 .412-.69.734-1.559.74-.852 0-1.547-.328-1.547-.74 0-.403.695-.73 1.547-.73.866 0 1.559.327 1.559.73m-5.882 14.969c0 1-1.309 1.806-2.924 1.806-1.605 0-2.916-.806-2.916-1.806 0-.994 1.308-1.809 2.915-1.809 1.616.003 2.925.815 2.925 1.81m1.929-4.853c0 .79-1.114 1.442-2.502 1.442-1.377 0-2.491-.653-2.491-1.442 0-.807 1.114-1.456 2.49-1.456 1.389 0 2.503.65 2.503 1.456m.718 24.699c0 1.66-1.867 2.99-4.17 2.99-2.302 0-4.175-1.336-4.175-2.99 0-1.655 1.873-3.002 4.17-3.002 2.308 0 4.175 1.344 4.175 3.002m9.174-2.487c0 1.459-1.684 2.635-3.762 2.635-2.072 0-3.756-1.176-3.756-2.635 0-1.459 1.684-2.651 3.756-2.651 2.075-.003 3.762 1.19 3.762 2.651m4.683-5.082c0 1.143-1.377 2.078-3.087 2.078-1.69 0-3.066-.935-3.066-2.078 0-1.162 1.376-2.097 3.066-2.097 1.705 0 3.087.935 3.087 2.097m-4.48-9.061c0 .768-1.006 1.38-2.235 1.38-1.245 0-2.251-.612-2.251-1.38 0-.761 1.006-1.391 2.251-1.391 1.232 0 2.235.627 2.235 1.391M22.264 9.246c0 .638-.946 1.159-2.12 1.159-1.166 0-2.115-.524-2.115-1.16 0-.635.95-1.15 2.115-1.15 1.171 0 2.12.518 2.12 1.15M34.368 25.16c0 .936-1.166 1.69-2.616 1.69-1.44 0-2.608-.76-2.608-1.69 0-.918 1.169-1.682 2.616-1.682 1.44.006 2.608.764 2.608 1.683" id="Shape" fill="#EE452A"/><path d="M48.986 37.859V13.213h4.001v9.103c1.283-.442 2.502-.664 3.648-.664 2.503 0 4.435.815 5.811 2.45 1.192 1.42 1.793 3.282 1.793 5.561 0 2.99-1.015 5.245-3.05 6.729-1.764 1.318-4.218 1.968-7.352 1.968-1.337 0-2.959-.16-4.851-.501m4.001-12.527v9.744c.57.086 1.089.14 1.548.14 3.736 0 5.606-1.77 5.606-5.298 0-1.716-.468-3.013-1.383-3.88-.812-.768-1.89-1.16-3.269-1.16-.786.006-1.618.151-2.502.454M68.352 38.15V23.08c2.328-.932 4.68-1.4 7.065-1.4 1.14 0 2.217.152 3.217.462v3.318c-.849-.308-1.79-.45-2.804-.45a9.937 9.937 0 0 0-3.468.624v12.524m8.926-16.214h4.01v9.674c0 1.352.293 2.273.863 2.746.499.429 1.357.642 2.554.642.806 0 1.696-.11 2.679-.3V21.944h4.018v15.643c-2.684.515-5.024.77-7.04.77-2.539 0-4.385-.504-5.537-1.5a4.556 4.556 0 0 1-1.248-2.098c-.2-.745-.3-1.727-.3-2.979m18.523 5.81V34c1.576.972 3.066 1.46 4.469 1.46 1.784 0 2.679-.55 2.679-1.65 0-.75-.53-1.347-1.576-1.826l-1.622-.756c-1.496-.68-2.534-1.433-3.15-2.242-.532-.706-.8-1.557-.8-2.523 0-1.574.638-2.789 1.926-3.668 1.126-.759 2.568-1.145 4.35-1.145 1.464 0 2.892.296 4.249.89v3.39c-1.351-.817-2.673-1.231-3.967-1.231-1.784 0-2.67.523-2.67 1.568 0 .417.179.778.544 1.055.336.255 1.103.639 2.285 1.202 1.645.82 2.753 1.554 3.31 2.17.712.812 1.076 1.789 1.076 2.954 0 1.635-.664 2.898-1.966 3.785-1.14.781-2.64 1.173-4.512 1.173a11.256 11.256 0 0 1-4.625-1.016m14.31 0V34c1.59.972 3.083 1.46 4.48 1.46 1.784 0 2.679-.55 2.679-1.65 0-.75-.533-1.347-1.59-1.826l-1.608-.756c-1.502-.68-2.542-1.433-3.15-2.242-.538-.706-.811-1.557-.811-2.523 0-1.574.65-2.789 1.935-3.668 1.114-.759 2.553-1.145 4.349-1.145 1.47 0 2.878.296 4.255.89v3.39c-1.36-.817-2.673-1.231-3.979-1.231-1.778 0-2.664.523-2.664 1.568 0 .417.18.778.544 1.055.342.255 1.094.639 2.289 1.202 1.644.82 2.747 1.554 3.303 2.17.72.812 1.071 1.789 1.071 2.954 0 1.635-.658 2.898-1.963 3.785-1.135.781-2.642 1.173-4.506 1.173a11.335 11.335 0 0 1-4.634-1.016m29.349-6.796h-11.314c.168 2.996 1.875 4.511 5.107 4.511 1.978 0 3.773-.563 5.37-1.719v3.307a11.51 11.51 0 0 1-5.983 1.646c-2.81 0-4.962-.815-6.447-2.48-1.288-1.426-1.932-3.369-1.932-5.788 0-2.772.824-4.965 2.49-6.586 1.457-1.4 3.31-2.105 5.547-2.105 1.576 0 2.947.389 4.107 1.13a6.01 6.01 0 0 1 2.271 2.63c.53 1.165.781 2.96.781 5.387m-11.052-2.752h7.182c-.18-2.263-1.294-3.394-3.349-3.394-1.089 0-1.966.345-2.653 1.017-.613.593-1 1.377-1.18 2.377" id="Shape" fill="#011F65"/><path id="Rectangle-path" fill="#011F65" d="M147.596 13.213h4.016v24.942h-4.016z"/><path d="M156.049 37.59V34c1.576.972 3.072 1.46 4.477 1.46 1.776 0 2.67-.55 2.67-1.65 0-.75-.527-1.347-1.584-1.826l-1.61-.756c-1.494-.68-2.54-1.433-3.147-2.242-.544-.706-.806-1.557-.806-2.523 0-1.574.641-2.789 1.938-3.668 1.117-.759 2.556-1.145 4.34-1.145 1.471 0 2.885.296 4.241.89v3.39c-1.342-.817-2.67-1.231-3.953-1.231-1.798 0-2.673.523-2.673 1.568 0 .417.177.778.541 1.055.323.255 1.098.639 2.283 1.202 1.648.82 2.753 1.554 3.312 2.17.713.812 1.08 1.789 1.08 2.954 0 1.635-.658 2.898-1.972 3.785-1.143.781-2.645 1.173-4.506 1.173a11.292 11.292 0 0 1-4.631-1.016m22.025-10.89v-3.39c2.094-1.109 4.24-1.658 6.406-1.658 2.372 0 3.914.684 4.626 2.053.356.691.544 1.968.544 3.85v10.273c-2.835.406-5.144.596-6.925.596-2.08 0-3.557-.408-4.455-1.251-.78-.745-1.16-1.851-1.16-3.324 0-2.212.94-3.766 2.833-4.665 1.249-.602 3.147-1.03 5.68-1.31l.334-.028v-.58c0-.963-.185-1.604-.59-1.934-.356-.3-.94-.448-1.779-.448-1.732 0-3.582.607-5.514 1.817m7.96 8.428v-4.315c-2.06.168-3.469.468-4.244.932-.67.406-.995 1-.995 1.81 0 1.226.719 1.83 2.19 1.83.814.009 1.826-.08 3.049-.257m8.518-20.459h4.127v4.216h-4.127v-4.217zm.069 7.31h4.01v16.176h-4.01V21.98zm9.179 16.17V23.08c2.33-.932 4.68-1.4 7.08-1.4 1.129 0 2.2.152 3.21.462v3.318c-.859-.308-1.796-.45-2.805-.45a9.856 9.856 0 0 0-3.469.624v12.524" id="Shape" fill="#011F65"/><path id="Rectangle-path" fill="#011F65" d="M217.313 13.213h4.019v24.942h-4.019z"/><path d="M226.472 14.67h4.133v4.216h-4.133v-4.217zm.063 7.31h4.013v16.176h-4.013V21.98zm9.195 16.17V22.767c2.59-.734 5.075-1.09 7.472-1.09 2.59 0 4.417.544 5.478 1.653.88.932 1.325 2.405 1.325 4.43v10.39h-4.019V28.028c0-1.226-.279-2.055-.846-2.52-.51-.409-1.325-.624-2.437-.624-.946 0-1.938.154-2.955.448V38.15m29.409-7.356H257.84c.168 2.996 1.866 4.511 5.09 4.511 1.995 0 3.784-.563 5.38-1.719v3.307a11.505 11.505 0 0 1-5.976 1.646c-2.807 0-4.962-.815-6.452-2.48-1.277-1.426-1.936-3.369-1.936-5.788 0-2.772.835-4.965 2.488-6.586 1.457-1.4 3.312-2.105 5.544-2.105 1.581 0 2.95.389 4.112 1.13a6.109 6.109 0 0 1 2.283 2.63c.513 1.165.772 2.96.772 5.387m-11.04-2.752h7.182c-.18-2.263-1.294-3.394-3.358-3.394-1.08 0-1.966.345-2.65 1.017-.613.593-.995 1.377-1.174 2.377m14.375 9.615V34c1.582.972 3.072 1.46 4.474 1.46 1.782 0 2.674-.55 2.674-1.65 0-.75-.536-1.347-1.59-1.826l-1.614-.756c-1.484-.68-2.539-1.433-3.149-2.242-.53-.706-.795-1.557-.795-2.526 0-1.574.633-2.789 1.927-3.668 1.12-.759 2.559-1.145 4.346-1.145 1.468 0 2.89.297 4.24.89v3.391c-1.339-.818-2.673-1.232-3.975-1.232-1.764 0-2.656.524-2.656 1.568 0 .417.18.778.535 1.056.337.254 1.11.638 2.292 1.2 1.647.821 2.756 1.555 3.312 2.17.712.813 1.063 1.79 1.063 2.955 0 1.635-.653 2.898-1.956 3.785-1.148.782-2.644 1.174-4.508 1.174a11.202 11.202 0 0 1-4.62-1.014" id="Shape" fill="#011F65"/></g></g></g></svg>
